dist/assets/img/svg/spb-pay.svg

<svg width="58" height="32" viewBox="0 0 58 32" fill="none" xmlns="http://www.w3.org/2000/svg">
<path d="M11.5508 17.5935L15.4646 20.1699L15.4644 24.95L11.5327 32L11.5508 17.5935Z" fill="#B6B8BB"/>
<path d="M8.30508 15.558L12.2102 17.8237L0.617188 24.8732L4.40108 17.9778L8.30508 15.558Z" fill="#B6B8BB"/>
<path d="M26.5151 9.04382L19.0544 9.00657L15.461 6.84359L11.5553 0.000167847L26.5151 9.04382Z" fill="#B6B8BB"/>
<path d="M11.5549 4.57764e-05L15.4606 6.84346L15.4685 16.2733L11.5312 15.0687L11.5549 4.57764e-05Z" fill="#B6B8BB"/>
<path d="M0.585693 6.8852L4.41359 13.8528L4.40116 17.9778L0.617272 24.8732L0.585693 6.8852Z" fill="#B6B8BB"/>
<path d="M0.585693 6.88537L26.4564 22.7341L19.043 22.786L4.41359 13.853L0.585693 6.88537Z" fill="#B6B8BB"/>
<path d="M19.0543 9.00643L26.515 9.04369L15.4722 15.8408L15.4609 11.1988L19.0543 9.00643Z" fill="#B6B8BB"/>
<path d="M40.5695 10.1296C41.4771 9.30103 42.7197 8.88333 43.9419 8.92171C45.2193 8.89575 46.5058 8.98268 47.7765 8.8314C47.5014 9.67582 46.9433 10.4074 46.5712 11.2156C45.6557 11.2326 44.739 11.1987 43.8246 11.2303C42.6486 11.3263 41.5279 12.2802 41.4129 13.4802C42.4829 12.4123 44.1572 12.34 45.5441 12.6911C46.4731 13.0072 47.3007 13.7049 47.6378 14.6441C47.949 15.4694 47.9998 16.3759 47.7968 17.2327C47.489 18.4079 46.5453 19.3178 45.4324 19.7479C44.12 20.2424 42.6103 20.2683 41.3035 19.7445C40.0632 19.2388 39.186 18.0647 38.8861 16.7766C38.5578 15.6305 38.6015 13.9336 38.9382 12.7686C39.2287 11.7634 39.8005 10.8361 40.5695 10.1296ZM43.7446 14.6046C43.0469 14.4663 42.261 14.7509 41.8989 15.3653C41.2418 16.4802 42.145 18.1455 43.6183 17.936C45.2266 17.7075 45.6442 15.1121 43.7446 14.6046ZM33.3557 11.7203C34.8012 11.3647 36.4541 11.4685 37.6887 12.3705C37.2806 13.0298 36.9119 13.7117 36.5375 14.3901C35.9343 14.1892 35.348 13.8697 34.6952 13.8855C34.0029 13.8641 33.2531 14.135 32.8596 14.7311C32.4402 15.3621 32.4199 16.2291 32.828 16.8726C33.1911 17.4799 33.9048 17.761 34.5824 17.8243C35.1112 17.7644 35.6491 17.6899 36.1384 17.4653C36.2556 17.3919 36.391 17.3953 36.524 17.4043C36.763 18.0884 37.2862 18.654 37.4925 19.346C36.1609 20.0584 34.5734 20.204 33.1155 19.8495C32.1109 19.5537 31.1537 18.978 30.5786 18.0816C29.6687 16.6841 29.7037 14.7073 30.7489 13.391C31.3792 12.5399 32.3432 11.9856 33.3557 11.7203ZM49.2006 11.7564C52.0092 11.7361 54.819 11.7349 57.6265 11.7564C57.6016 14.4274 57.6174 17.1006 57.6197 19.7716C56.6748 19.7761 55.7289 19.7784 54.784 19.7705C54.828 18.0173 54.74 16.2664 54.7953 14.5188C54.7998 14.3822 54.7682 14.2558 54.7017 14.1384C53.8391 14.1576 52.9744 14.1587 52.1118 14.1373C52.0577 16.0112 52.1017 17.8897 52.0904 19.766C51.1286 19.7829 50.1669 19.7739 49.2062 19.7705C49.2073 17.0984 49.2186 14.4274 49.2006 11.7564Z" fill="#B6B8BB"/>
<path d="M15.4644 24.95L19.0431 22.7859L26.4564 22.7339L11.5327 32L15.4644 24.95Z" fill="#B6B8BB"/>
</svg>

<svg width="58" height="32" fill="none" xmlns="http://www.w3.org/2000/svg"><path d="M11.55 17.593l3.915 2.577v4.78L11.532 32l.018-14.407z" fill="#B6B8BB"/><path d="M8.305 15.558l3.905 2.266-11.593 7.05 3.784-6.896 3.904-2.42zm18.21-6.514l-7.46-.037-3.594-2.163L11.555 0l14.96 9.044z" fill="#B6B8BB"/><path d="M11.555 0l3.906 6.843.008 9.43-3.938-1.204L11.555 0zM.586 6.885l3.828 6.968-.013 4.125-3.784 6.895L.586 6.885z" fill="#B6B8BB"/><path d="M.586 6.885l25.87 15.85-7.413.051-14.63-8.933L.587 6.885zm18.468 2.121l7.461.038-11.043 6.797-.011-4.642 3.593-2.193zM40.57 10.13c.907-.829 2.15-1.247 3.372-1.208 1.277-.026 2.564.06 3.834-.09-.275.844-.833 1.575-1.205 2.384-.915.017-1.832-.017-2.746.014-1.176.096-2.297 1.05-2.412 2.25 1.07-1.068 2.744-1.14 4.131-.789.93.316 1.757 1.014 2.094 1.953.311.825.362 1.732.159 2.589-.308 1.175-1.252 2.085-2.365 2.515-1.312.494-2.822.52-4.129-.004-1.24-.505-2.117-1.68-2.417-2.967-.328-1.147-.285-2.843.052-4.008a5.794 5.794 0 011.631-2.64zm3.175 4.475c-.698-.139-1.484.146-1.846.76-.657 1.115.246 2.78 1.72 2.571 1.608-.229 2.025-2.824.126-3.331zm-10.39-2.885c1.446-.355 3.1-.252 4.334.65-.408.66-.777 1.342-1.151 2.02-.604-.2-1.19-.52-1.843-.505-.692-.02-1.442.25-1.835.846a2.003 2.003 0 00-.032 2.142c.363.607 1.077.888 1.754.951.53-.06 1.067-.134 1.556-.359.118-.073.253-.07.386-.06.239.683.762 1.249.968 1.941-1.331.712-2.919.858-4.377.503-1.004-.295-1.961-.871-2.536-1.767-.91-1.398-.875-3.375.17-4.691.63-.851 1.594-1.405 2.607-1.67zm15.846.036c2.808-.02 5.618-.021 8.425 0-.024 2.671-.009 5.345-.006 8.016-.945.004-1.891.006-2.836-.002.044-1.753-.044-3.504.011-5.251a.71.71 0 00-.093-.38c-.863.019-1.728.02-2.59-.002-.054 1.874-.01 3.753-.022 5.629-.961.017-1.923.008-2.884.005.001-2.673.013-5.344-.005-8.015z" fill="#B6B8BB"/><path d="M15.464 24.95l3.58-2.164 7.412-.052L11.533 32l3.931-7.05z" fill="#B6B8BB"/></svg>
